X: 1
T: A Cold Frosty Morning
R: waltz
Z: 1997 by John Chambers <jc:trillian.mit.edu>
M: 3/4
L: 1/8
K: A
|: F2 \
| "A"E>F A2 A2 | "F#m"A4 A2 | "D"Bc dc BA | "E"GF- F2 E2 \
| "A"E>F A2 A2 | c>d e2 a2 | "E7"B3 ABc | "A"A4 :|
|| ef \
| "G"=g3 bag | "D"gf- f2 e2 | "A"e2 f2 ab | "A"a2 f2 ef \
| "G"=gf gb ag | "D"f4 f/"#"g/a | "A"ef ec Bc | A2 F2 E2 |
| "G"=gf gb ag | "D"fe ce fa | "A"ef ec Bc | "E"A2 F2 E2 \
| "A"E>F A2 A2 | c>d e2 a2 | "E7"B3 ABc | "A"A4 |]
